X: 30534
T: On The Banks Of Lake Merlot
R: reel
M: 4/4
K: Cmajor
|:c3 G EGce|dcBA (3Bcd AB|cGEG CGEG|G,GFE DG, (3B,A,G,|
B,3 C DE (3FED|CEDF ~E3G|~F3 A GABc|~B3 c dB c2:|
|:g3 f edcB|cGEG CGEG|^c2 cd ef (3gfe|fed^c dAFA|
B3c defd|cGDF ~E3 G|~F3A GABc|~B3c dB c2:|
|:E2 (3FED EA,~A,2|G,A,CD CA,~A,2|G,A,CD CEDF|
~E3 B cBAG|EAAB c3 B|cBAG~E3D|(3EFG DC B,3 G,|(3A,B,C DB, A,3 z:|

